X:1290
T:McFadden's Favourite
R:reel
D:Andy McGann & Paul Brady
D:Frankie Gavin: Croch Suas E
N: Z:id:hn-reel-375
M:4/4
L:1/8
K:G
G2FG EGDB,|G,A,B,D EA,A,2|DGGF GABd|1 gedc BGAF:|2 gedc BG G2||
g3 a bgaf|g2bg eaaf|1 g3a bgaf|gedc BGBd:|2 g3f e3d|(3Bcd ed BGAF||
